X:1
T:I Do Not Know How
T:I Do Not Know How
T:Helen Howarth Lemmel
T:Helen Howarth Lemmel, 1921
T:Public Domain Courtesy of the Cyber Hymnal™
T:Public Domain Courtesy of the Cyber Hymnal™
C:Helen Howarth Lemmel
Z:Public Domain
Z:Courtesy of the Cyber Hymnal™
%%score ( 1 2 ) ( 3 4 )
L:1/8
Q:1/4=110
M:4/4
K:G
V:1 treble 
V:2 treble 
V:3 bass 
V:4 bass 
V:1
 [B,D]2 | [B,D]2 [DB]2 [EB]2 [^Ed]2 | [Fd]2 [DF]2 [CF]2 [CE]2 | [CE]2 [CD]2 [CA]2 [^C^A]2 | %4
w: 1.~I|do not know how|Ad- am’s sin Lives|on in you and|
w: 2.~I|do not know how|God could give U-|nto a maid- en|
w: 3.~I|do not know how|God could lay My|sins up- on His|
w: 4.~I|do not know how|God could call His|Son from out the|
w: 5.~I|do not know how|Je- sus’ blood Can|cleanse my heart from|
w: 6.~I|do not know how|one day He Can|come to earth a-|
 [DB]6 [CD]2 | [B,D]2 [DB]2 [EB]2 [^Ed]2 | [Fd]2 [DA]2 [DA]2 [^DB]2 | [EG]2 [EG]2 [^CF]2 [CE]2 | %8
w: me, Nor|how it caus- es|all the wrong And|sor- row that we|
w: fair, His|ho- ly Son, in|Beth- l’hem born, His|bed a man- ger|
w: Son, Nor|how, on Cal- v’ry’s|cross, for me He|per- fect par- don|
w: grave, Nor|how that way to|me His Ev- er-|last- ing life He|
w: sin, Nor|how, by faith, in|ev- ’ry fight The|vic- t’ry I may|
w: gain, Nor|how like Him I|shall be made, And|ev- er with Him|
 D6 ||"^Refrain" B,C | [B,D][B,E][B,F][B,G] [DA][DG][DF][DE] | [CG]2 [CF]3 [CE][CE][B,G] | %12
w: see.||||
w: bare.||||
w: won.||||
w: gave.|But I|read it in God’s Word, and I be-|lieve it; Yes, I be-|
w: win.||||
w: reign.||||
 [CG]2 [CF]3 [CE][CE][CE] | [CE]2 [B,D]2 z3 | DEFG B!ff![^Ge][Ed][Ec][EG] | %15
w: |||
w: |||
w: |||
w: lieve it, ful- ly be-|lieve it!|I read it in God’s Word, and I be-|
w: |||
w: |||
 [DB]2 [CA]3 [CE][CE][Ec] | [Dc]2 [DF]2 [FB]2 [FA]2 | [DG]8 |] %18
w: |||
w: |||
w: |||
w: lieve it, And that is|all I need to|do.|
w: |||
w: |||
V:2
 x2 | x8 | x8 | x8 | x8 | x8 | x8 | x8 | D6 || B,C | x8 | x8 | x8 | x7 | DEF^G B x4 | x8 | x8 | %17
 x8 |] %18
V:3
 G,2 | G,2 =G,2 =G,2 [^G,B,]2 | [A,C]2 [D,A,]2 [D,A,]2 [D,G,]2 | [D,G,]2 [D,F,]2 [D,F,]2 [D,F,]2 | %4
 G,6 [F,A,]2 | G,2 =G,2 =G,2 [^G,B,]2 | A,2 [D,F,]2 [D,F,]2 [B,,F,]2 | %7
 [E,G,]2 [E,B,]2 [A,,A,]2 [A,,G,]2 | [D,F,]6 || [D,G,][D,A,] | %10
 [G,,G,][G,,G,][G,,G,][G,,G,] [G,B,][G,B,][B,,G,][B,,G,] | [A,,D,]2 [D,A,]3 D,D,D, | %12
 A,2 [D,A,]2 D2 [D,D][D,D] | G,2 [D,G,]2 G,,3 | D,E,F,G, B,[E,B,][^G,B,]A,[E,B,] | %15
 A,2 [E,A,]2 A,,[C,A,][C,A,][C,A,] | [D,F,]2 [D,A,]2 [D,D]2 [D,C]2 | [G,,G,B,]8 |] %18
V:4
 G,2 | ^G,2 ^G,2 ^G,2 x2 | x8 | x8 | (G,,2 B,,2 D,2) x2 | ^G,2 ^G,2 ^G,2 x2 | A,2 x6 | x8 | x6 || %9
 x2 | x8 | x5 D,D,D, | A,2 D2 x4 | x7 | D,E,F,^G, B, x A, x2 | A,2 x6 | x8 | x8 |] %18

